X: 26787
T: Miller Of Drone, The
R: strathspey
M: 4/4
K: Amajor
e>Bc<G A>EF>C|D>FE<G A2 (3Acd||
(3agf (3efg (3aed (3cBA|(3dcB (3cBA (3Bfe (3dcB||
2 e>Bc>G A>EF>C|D>FE>G A2 A||
(3agf (3efg (3aed (3cBA|(3dcB (3cBA (3Ffe d||

